public/logos/GE_HealthCare_logo_2023.svg

<svg fill="none" height="32" viewBox="0 0 144 32" width="144" xmlns="http://www.w3.org/2000/svg"><path d="m138.214 15.5618c0-1.1629.972-1.9833 2.326-1.9833 1.24 0 1.945.5717 1.945 1.5634 0 .8958-.762 1.3922-1.945 1.9068l-2.326.9917zm2.097 7.1128c1.335 0 2.498-.5147 3.089-1.5634.191-.3241.153-.7053-.133-.8959-.287-.1905-.668-.1335-.858.1529-.515.744-1.163 1.1058-2.098 1.1058-1.373 0-2.097-.7052-2.097-1.9833v-.1712l2.726-1.1628c2.097-.8959 2.879-1.487 2.879-3.1268 0-1.6399-1.278-2.6509-3.299-2.6509s-3.604 1.3351-3.604 3.1839v3.9278c0 1.9263 1.316 3.1839 3.394 3.1839zm-5.491-10.2019c-1.907 0-3.242 1.3922-3.242 3.4896v5.9683c0 .3617.267.6481.648.6481s.648-.2864.648-.6481v-5.9683c0-1.278.668-2.2309 1.964-2.2309.21 0 .534.0764.705.0764.344 0 .611-.2293.611-.6105 0-.2864-.171-.534-.534-.6288-.267-.0764-.534-.0958-.801-.0958zm-10.921 7.4369c0-.8959.762-1.3922 1.944-1.9069l2.327-.9917v2.4786c0 1.1629-.972 1.9833-2.327 1.9833-1.239 0-1.944-.5717-1.944-1.5633zm2.174-7.5317c-1.335 0-2.498.5147-3.089 1.5634-.191.3241-.153.7053.133.8958.286.1906.668.1336.858-.1528.515-.7441 1.163-1.1058 2.098-1.1058 1.372 0 2.097.7052 2.097 1.9833v.1712l-2.726 1.1628c-2.098.8959-2.879 1.487-2.879 3.1268s1.278 2.6509 3.299 2.6509 3.604-1.3351 3.604-3.1839v-3.9278c0-1.9263-1.316-3.1839-3.394-3.1839zm-11.766 5.8154v-4.3855c0-1.8304 1.354-3.242 3.089-3.242 1.316 0 2.289.5717 2.842 1.6399.153.3047.515.4382.839.2864.304-.1529.42-.5147.267-.8205-.725-1.5063-2.135-2.34509-3.948-2.34509-2.497 0-4.442 1.94459-4.442 4.48129v4.3855c0 2.5356 1.945 4.4813 4.442 4.4813 1.812 0 3.223-.8388 3.948-2.3451.153-.3047.037-.6676-.267-.8205-.324-.1529-.687-.0194-.839.2864-.553 1.0681-1.526 1.6399-2.842 1.6399-1.735 0-3.089-1.4105-3.089-3.242zm-10.493 3.8352c0 .2649.267.5502.648.5502s.648-.2864.648-.6481v-5.9468c0-1.278 1.029-2.3074 2.307-2.3074 1.279 0 2.308 1.0294 2.308 2.3074v5.9468c0 .3617.267.6481.648.6481s.648-.2864.648-.6481v-5.9468c0-1.9262-1.525-3.509-3.432-3.509-.973 0-1.85.42-2.479 1.0864v-3.4918c0-.36173-.267-.64814-.648-.64814s-.648.28641-.648.74614v11.8601zm-4.2328-9.46v-2.498c0-.36175-.2671-.64816-.6482-.64816-.3812 0-.6482.28641-.6482.64816v2.498h-1.5828c-.3435 0-.5911.2477-.5911.6105 0 .3435.2476.5911.5911.5911h1.5828v5.3201c0 .9722.3241 1.8692.9152 2.5173.6482.7053 1.469.9723 2.479.9723.42 0 .687-.3241.667-.6676-.019-.3434-.305-.5717-.648-.5717-1.43 0-2.1168-.9529-2.1168-2.2503v-5.3201h2.1738c.344 0 .591-.2476.591-.6105 0-.3435-.247-.5911-.591-.5911zm-3.0504 9.5149c.0194-.3434-.2476-.6105-.5911-.6481-.7817-.0765-1.2199-.5535-1.2199-1.4493v-9.9155c0-.36175-.267-.64816-.6482-.64816s-.6482.28641-.6482.64816v9.9155c0 .7246.21 1.3534.5911 1.811.4382.5535 1.0681.8776 1.8498.8776.3812 0 .6482-.2671.6676-.5912zm-10.9039-2.1738c0-.8959.7623-1.3922 1.9446-1.9069l2.3267-.9917v2.4786c0 1.1629-.9722 1.9833-2.3267 1.9833-1.2393 0-1.9446-.5717-1.9446-1.5633zm2.1739-7.5317c-1.3351 0-2.498.5147-3.0891 1.5634-.1906.3241-.1529.7053.1335.8958.2864.1906.6676.1336.8582-.1528.5146-.7441 1.1628-1.1058 2.0974-1.1058 1.3728 0 2.0974.7052 2.0974 1.9833v.1712l-2.7262 1.1628c-2.0974.8959-2.8791 1.487-2.8791 3.1268s1.278 2.6509 3.299 2.6509 3.6038-1.3351 3.6038-3.1839v-3.9278c0-1.9263-1.3158-3.1839-3.3938-3.1839zm-10.4495 3.1839c0-1.1629.9722-1.9833 2.3268-1.9833 1.2393 0 1.9445.5717 1.9445 1.5634 0 .8958-.7623 1.3922-1.9445 1.9068l-2.3268.9917zm2.0974 7.1128c1.3351 0 2.498-.5147 3.0891-1.5634.1906-.3241.1529-.7053-.1335-.8959-.2864-.1905-.6676-.1335-.8581.1529-.5147.744-1.1629 1.1058-2.0975 1.1058-1.3728 0-2.0974-.7052-2.0974-1.9833v-.1712l2.7262-1.1628c2.0974-.8959 2.8792-1.487 2.8792-3.1268 0-1.6399-1.2781-2.6509-3.2991-2.6509s-3.6038 1.3351-3.6038 3.1839v3.9278c0 1.9263 1.3158 3.1839 3.3938 3.1839zm-5.6797-.7817v-11.7836c0-.40055-.267-.68696-.6869-.68696s-.687.28641-.687.68696v5.0907h-6.0188v-5.0907c0-.40055-.267-.68696-.6869-.68696-.42 0-.687.28641-.687.68696v11.7836c0 .3811.2864.6869.687.6869.4005 0 .6869-.2864.6869-.6869v-5.4913h6.0188v5.4913c0 .4005.2671.6869.687.6869s.6869-.2864.6869-.6869zm-14.4936.5911c.3434 0 .5911-.2477.5911-.5911 0-.3618-.2477-.6105-.5911-.6105h-5.5968v-4.8819h5.1392c.3434 0 .5911-.2476.5911-.5911 0-.3618-.2477-.6105-.5911-.6105h-5.1392v-4.4813h5.5968c.3434 0 .5911-.2476.5911-.6105 0-.34344-.2477-.59108-.5911-.59108h-6.2644c-.4005 0-.6675.2864-.6675.66758v11.6317c0 .3812.267.6676.6675.6676h6.2644zm-9.3147-4.2907v-2.0598c0-.3811-.267-.6676-.6676-.6676h-3.6037c-.3435 0-.5912.2477-.5912.5912 0 .3617.2477.6105.5912.6105h2.9362v1.5257c0 1.7927-1.3728 3.242-3.0321 3.242-1.6592 0-3.0126-1.4299-3.0126-3.242v-4.3855c0-1.8304 1.2963-3.242 2.9749-3.242 1.2781 0 2.1933.5717 2.7457 1.6399.1529.3047.5146.4382.8387.2864.3048-.1529.42-.5147.2671-.8205-.7247-1.5063-2.0781-2.34509-3.8515-2.34509-2.4409 0-4.3283 1.94459-4.3283 4.48129v4.3855c0 2.5173 1.9068 4.4813 4.366 4.4813 2.4593 0 4.3661-2.0404 4.3661-4.4813zm-30.3699-6.3591c0-1.8175 1.2297-3.5844 1.9026-3.24847.7645.38331-.5728 2.09637-1.9026 3.24847zm-8.3779.6643c0-1.4622 1.4439-4.24332 2.3268-3.95045 1.0412.3467-.8635 3.15155-2.3268 3.95045zm-1.46216 10.4603c-.66433.0302-1.10686-.3951-1.10686-1.1036 0-1.9058 2.64122-3.7244 4.63632-4.701-.3542 2.6595-1.2522 5.7002-3.52946 5.8046zm12.18846-6.2051c-1.5053 0-2.6595 1.109-2.6595 2.4377 0 1.109.6643 1.9941 1.5515 1.9941.3112 0 .6191-.1766.6191-.5761 0-.576-.7634-.716-.7041-1.5784.0376-.5685.5728-.9486 1.1036-.9486 1.0638 0 1.5612 1.0304 1.5612 2.0942-.0452 1.6398-1.2511 2.7811-2.6691 2.7811-1.8617 0-3.0568-1.7733-3.0568-3.6802 0-2.836 1.8605-3.944 2.835-4.2099.0096 0 2.5496.4533 2.4699-.6665-.0344-.491-.7666-.6794-1.2974-.702-.589-.0237-1.1801.1884-1.1801.1884-.3101-.1561-.5243-.4609-.6557-.814 1.8164-1.375 3.102-2.7036 3.102-4.21105 0-.79785-.5319-1.5074-1.5515-1.5074-1.8165 0-3.1914 2.30417-3.1914 4.38765 0 .3542 0 .7095.0893 1.0196-1.152.842-2.0091 1.3642-3.5607 2.2956 0-.1949.041-.6934.1712-1.3438.5319-.576 1.262-1.4385 1.262-2.1039 0-.3101-.1766-.576-.5319-.576-.8862 0-1.5505 1.3287-1.7282 2.26-.3994.4878-1.1962 1.109-1.8616 1.109-.5319 0-.7085-.4888-.7537-.6654 1.685-.5771 3.7674-2.8813 3.7674-4.96472 0-.44361-.1776-1.41911-1.5063-1.41911-1.9952 0-3.67915 2.96963-3.67915 5.27483-.70955 0-.97443-.7537-.97443-1.3297 0-.5761.22181-1.1532.22181-1.32979 0-.17658-.08937-.39946-.35532-.39946-.66541 0-1.06379.88615-1.06379 1.90575.04522 1.4181.9755 2.3053 2.21695 2.3936.17763.842.93133 1.6398 1.86163 1.6398.5771 0 1.2856-.1766 1.7734-.6202-.0453.3112-.0883.5761-.1335.842-1.95 1.0197-3.368 1.7292-4.65361 2.8802-1.01857.9314-1.5957 2.1718-1.5957 3.1484 0 1.3297.842 2.569 2.57012 2.569 2.03929 0 3.58979-1.6388 4.34349-3.8999.3553-1.0638.4974-2.611.5857-4.0301 2.0393-1.1521 3.0062-1.8197 4.0679-2.5734.1335.2218.2681.3995.4436.5319-.9303.4878-3.1462 1.8617-3.1462 5.0961 0 2.3053 1.5515 4.8754 4.6094 4.8754 2.526 0 4.2552-2.0813 4.2552-4.0764 0-1.8175-1.0197-3.5015-2.9707-3.5015zm7.6199 3.8062c-.0076.014-.0334.0344-.0819.0172-.0376-.014-.0495-.0334-.0484-.057.0022-.0259.5362-1.6022.533-3.4122-.0065-1.951-.799-3.1472-1.8164-3.1472-.6213 0-1.0638.4436-1.0638 1.1079 0 1.1973 1.4621 1.2856 1.4621 3.901 0 1.0638-.2218 2.0813-.576 3.1914-1.6398 5.5397-6.8705 8.1098-11.9666 8.1098-2.3494 0-4.0194-.4824-4.5168-.7053-.0205-.0096-.0367-.0495-.0216-.0882.0119-.0313.0463-.0539.0646-.0453.2024.0797 1.6356.5298 3.4078.5298 1.95 0 3.1031-.7968 3.1031-1.7745 0-.6191-.4877-1.1068-1.109-1.1068-1.1962 0-1.2856 1.5063-3.8557 1.5063-1.108 0-2.0824-.2207-3.23555-.576-5.49556-1.684-8.11521-6.8706-8.1109-12.0119.00216-2.5033.7031-4.4974.71494-4.5168.00861-.0129.03984-.0269.0786-.0129.03984.0129.05061.0474.0463.057-.0646.2079-.52974 1.6367-.52974 3.4089 0 1.951.79784 3.1031 1.81642 3.1031.57604 0 1.06379-.4436 1.06379-1.0627 0-1.1973-1.46218-1.3297-1.46218-3.9009 0-1.1091.22181-2.0835.57604-3.23557 1.68399-5.49556 6.86948-8.07214 11.96768-8.1109 2.3688-.0183 4.4426.69017 4.5201.75262.014.01185.029.04307.014.07968-.0162.04092-.0442.0463-.0582.04415-.0247-.00323-1.3728-.56636-3.4132-.56636-1.9047 0-3.1009.79677-3.1009 1.8175 0 .57604.4425 1.06272 1.1069 1.06272 1.1973 0 1.2866-1.46218 3.8557-1.46218 1.109 0 2.0823.2218 3.2355.57604 5.5419 1.68398 8.0635 6.9147 8.1109 11.9666.0248 2.5884-.7052 4.5481-.7117 4.561zm-13.558-19.808352c-8.42102 0-15.248476 6.826382-15.248476 15.246252 0 8.42 6.826376 15.2463 15.248476 15.2463 8.422 0 15.2452-6.8242 15.2452-15.2463 0-8.42203-6.8242-15.246252-15.2452-15.246252zm0 31.247352c-8.82048 0-16.0011-7.1354-16.0011-16 0-8.86458 7.17846-15.9989 15.9989-15.9989 8.8205 0 16 7.17954 16 16 0 8.8205-7.1817 16-16 16z" fill="#640acd"/></svg>

<svg width="144" height="32" viewBox="0 0 144 32" fill="none" xmlns="http://www.w3.org/2000/svg">
<path d="M138.214 15.5618C138.214 14.3989 139.186 13.5785 140.54 13.5785C141.78 13.5785 142.485 14.1502 142.485 15.1419C142.485 16.0377 141.723 16.5341 140.54 17.0487L138.214 18.0404V15.5618ZM140.311 22.6746C141.646 22.6746 142.809 22.1599 143.4 21.1112C143.591 20.7871 143.553 20.4059 143.267 20.2153C142.98 20.0248 142.599 20.0818 142.409 20.3682C141.894 21.1122 141.246 21.474 140.311 21.474C138.938 21.474 138.214 20.7688 138.214 19.4907V19.3195L140.94 18.1567C143.037 17.2608 143.819 16.6697 143.819 15.0299C143.819 13.39 142.541 12.379 140.52 12.379C138.499 12.379 136.916 13.7141 136.916 15.5629V19.4907C136.916 21.417 138.232 22.6746 140.31 22.6746H140.311ZM134.82 12.4727C132.913 12.4727 131.578 13.8649 131.578 15.9623V21.9306C131.578 22.2923 131.845 22.5787 132.226 22.5787C132.607 22.5787 132.874 22.2923 132.874 21.9306V15.9623C132.874 14.6843 133.542 13.7314 134.838 13.7314C135.048 13.7314 135.372 13.8078 135.543 13.8078C135.887 13.8078 136.154 13.5785 136.154 13.1973C136.154 12.9109 135.983 12.6633 135.62 12.5685C135.353 12.4921 135.086 12.4727 134.819 12.4727H134.82ZM123.899 19.9096C123.899 19.0137 124.661 18.5174 125.843 18.0027L128.17 17.011V19.4896C128.17 20.6525 127.198 21.4729 125.843 21.4729C124.604 21.4729 123.899 20.9012 123.899 19.9096ZM126.073 12.3779C124.738 12.3779 123.575 12.8926 122.984 13.9413C122.793 14.2654 122.831 14.6466 123.117 14.8371C123.403 15.0277 123.785 14.9707 123.975 14.6843C124.49 13.9402 125.138 13.5785 126.073 13.5785C127.445 13.5785 128.17 14.2837 128.17 15.5618V15.733L125.444 16.8958C123.346 17.7917 122.565 18.3828 122.565 20.0226C122.565 21.6624 123.843 22.6735 125.864 22.6735C127.885 22.6735 129.468 21.3384 129.468 19.4896V15.5618C129.468 13.6355 128.152 12.3779 126.074 12.3779H126.073ZM114.307 18.1933V13.8078C114.307 11.9774 115.661 10.5658 117.396 10.5658C118.712 10.5658 119.685 11.1375 120.238 12.2057C120.391 12.5104 120.753 12.6439 121.077 12.4921C121.381 12.3392 121.497 11.9774 121.344 11.6716C120.619 10.1653 119.209 9.32651 117.396 9.32651C114.899 9.32651 112.954 11.2711 112.954 13.8078V18.1933C112.954 20.7289 114.899 22.6746 117.396 22.6746C119.208 22.6746 120.619 21.8358 121.344 20.3295C121.497 20.0248 121.381 19.6619 121.077 19.509C120.753 19.3561 120.39 19.4896 120.238 19.7954C119.685 20.8635 118.712 21.4353 117.396 21.4353C115.661 21.4353 114.307 20.0248 114.307 18.1933ZM103.814 22.0285C103.814 22.2934 104.081 22.5787 104.462 22.5787C104.843 22.5787 105.11 22.2923 105.11 21.9306V15.9838C105.11 14.7058 106.139 13.6764 107.417 13.6764C108.696 13.6764 109.725 14.7058 109.725 15.9838V21.9306C109.725 22.2923 109.992 22.5787 110.373 22.5787C110.754 22.5787 111.021 22.2923 111.021 21.9306V15.9838C111.021 14.0576 109.496 12.4748 107.589 12.4748C106.616 12.4748 105.739 12.8948 105.11 13.5612V10.0694C105.11 9.70767 104.843 9.42126 104.462 9.42126C104.081 9.42126 103.814 9.70767 103.814 10.1674V22.0275V22.0285ZM99.5812 12.5685V10.0705C99.5812 9.70875 99.3141 9.42234 98.933 9.42234C98.5518 9.42234 98.2848 9.70875 98.2848 10.0705V12.5685H96.702C96.3585 12.5685 96.1109 12.8162 96.1109 13.179C96.1109 13.5225 96.3585 13.7701 96.702 13.7701H98.2848V19.0902C98.2848 20.0624 98.6089 20.9594 99.2 21.6075C99.8482 22.3128 100.669 22.5798 101.679 22.5798C102.099 22.5798 102.366 22.2557 102.346 21.9122C102.327 21.5688 102.041 21.3405 101.698 21.3405C100.268 21.3405 99.5812 20.3876 99.5812 19.0902V13.7701H101.755C102.099 13.7701 102.346 13.5225 102.346 13.1596C102.346 12.8161 102.099 12.5685 101.755 12.5685H99.5812ZM96.5308 22.0834C96.5502 21.74 96.2832 21.4729 95.9397 21.4353C95.158 21.3588 94.7198 20.8818 94.7198 19.986V10.0705C94.7198 9.70875 94.4528 9.42234 94.0716 9.42234C93.6904 9.42234 93.4234 9.70875 93.4234 10.0705V19.986C93.4234 20.7106 93.6334 21.3394 94.0145 21.797C94.4527 22.3505 95.0826 22.6746 95.8643 22.6746C96.2455 22.6746 96.5125 22.4075 96.5319 22.0834H96.5308ZM85.6269 19.9096C85.6269 19.0137 86.3892 18.5174 87.5715 18.0027L89.8982 17.011V19.4896C89.8982 20.6525 88.926 21.4729 87.5715 21.4729C86.3322 21.4729 85.6269 20.9012 85.6269 19.9096ZM87.8008 12.3779C86.4657 12.3779 85.3028 12.8926 84.7117 13.9413C84.5211 14.2654 84.5588 14.6466 84.8452 14.8371C85.1316 15.0277 85.5128 14.9707 85.7034 14.6843C86.218 13.9402 86.8662 13.5785 87.8008 13.5785C89.1736 13.5785 89.8982 14.2837 89.8982 15.5618V15.733L87.172 16.8958C85.0746 17.7917 84.2929 18.3828 84.2929 20.0226C84.2929 21.6624 85.5709 22.6735 87.5919 22.6735C89.6129 22.6735 91.1957 21.3384 91.1957 19.4896V15.5618C91.1957 13.6355 89.8799 12.3779 87.8019 12.3779H87.8008ZM77.3513 15.5618C77.3513 14.3989 78.3235 13.5785 79.6781 13.5785C80.9174 13.5785 81.6226 14.1502 81.6226 15.1419C81.6226 16.0377 80.8603 16.5341 79.6781 17.0487L77.3513 18.0404V15.5618ZM79.4487 22.6746C80.7838 22.6746 81.9467 22.1599 82.5378 21.1112C82.7284 20.7871 82.6907 20.4059 82.4043 20.2153C82.1179 20.0248 81.7367 20.0818 81.5462 20.3682C81.0315 21.1122 80.3833 21.474 79.4487 21.474C78.0759 21.474 77.3513 20.7688 77.3513 19.4907V19.3195L80.0775 18.1567C82.1749 17.2608 82.9567 16.6697 82.9567 15.0299C82.9567 13.39 81.6786 12.379 79.6576 12.379C77.6366 12.379 76.0538 13.7141 76.0538 15.5629V19.4907C76.0538 21.417 77.3696 22.6746 79.4476 22.6746H79.4487ZM73.769 21.8929V10.1093C73.769 9.70875 73.502 9.42234 73.0821 9.42234C72.6622 9.42234 72.3951 9.70875 72.3951 10.1093V15.2H66.3763V10.1093C66.3763 9.70875 66.1093 9.42234 65.6894 9.42234C65.2694 9.42234 65.0024 9.70875 65.0024 10.1093V21.8929C65.0024 22.274 65.2888 22.5798 65.6894 22.5798C66.0899 22.5798 66.3763 22.2934 66.3763 21.8929V16.4016H72.3951V21.8929C72.3951 22.2934 72.6622 22.5798 73.0821 22.5798C73.502 22.5798 73.769 22.2934 73.769 21.8929ZM59.2754 22.484C59.6188 22.484 59.8665 22.2363 59.8665 21.8929C59.8665 21.5311 59.6188 21.2824 59.2754 21.2824H53.6786V16.4005H58.8178C59.1612 16.4005 59.4089 16.1529 59.4089 15.8094C59.4089 15.4476 59.1612 15.1989 58.8178 15.1989H53.6786V10.7176H59.2754C59.6188 10.7176 59.8665 10.47 59.8665 10.1071C59.8665 9.76366 59.6188 9.51602 59.2754 9.51602H53.011C52.6105 9.51602 52.3435 9.80242 52.3435 10.1836V21.8153C52.3435 22.1965 52.6105 22.4829 53.011 22.4829H59.2754V22.484ZM49.9607 18.1933V16.1335C49.9607 15.7524 49.6937 15.4659 49.2931 15.4659H45.6894C45.3459 15.4659 45.0982 15.7136 45.0982 16.0571C45.0982 16.4188 45.3459 16.6676 45.6894 16.6676H48.6256V18.1933C48.6256 19.986 47.2528 21.4353 45.5935 21.4353C43.9343 21.4353 42.5809 20.0054 42.5809 18.1933V13.8078C42.5809 11.9774 43.8772 10.5658 45.5558 10.5658C46.8339 10.5658 47.7491 11.1375 48.3015 12.2057C48.4544 12.5104 48.8161 12.6439 49.1402 12.4921C49.445 12.3392 49.5602 11.9774 49.4073 11.6716C48.6826 10.1653 47.3292 9.32651 45.5558 9.32651C43.1149 9.32651 41.2275 11.2711 41.2275 13.8078V18.1933C41.2275 20.7106 43.1343 22.6746 45.5935 22.6746C48.0528 22.6746 49.9596 20.6342 49.9596 18.1933H49.9607ZM19.5908 11.8342C19.5908 10.0167 20.8205 8.2498 21.4934 8.58573C22.2579 8.96904 20.9206 10.6821 19.5908 11.8342ZM11.2129 12.4985C11.2129 11.0363 12.6568 8.25518 13.5397 8.54805C14.5809 8.89475 12.6762 11.6996 11.2129 12.4985ZM9.75074 22.9588C9.08641 22.989 8.64388 22.5637 8.64388 21.8552C8.64388 19.9494 11.2851 18.1308 13.2802 17.1542C12.926 19.8137 12.028 22.8544 9.75074 22.9588ZM21.9392 16.7537C20.4339 16.7537 19.2797 17.8627 19.2797 19.1914C19.2797 20.3004 19.944 21.1855 20.8312 21.1855C21.1424 21.1855 21.4503 21.0089 21.4503 20.6094C21.4503 20.0334 20.6869 19.8934 20.7462 19.031C20.7838 18.4625 21.319 18.0824 21.8498 18.0824C22.9136 18.0824 23.411 19.1128 23.411 20.1766C23.3658 21.8164 22.1599 22.9577 20.7419 22.9577C18.8802 22.9577 17.6851 21.1844 17.6851 19.2775C17.6851 16.4415 19.5456 15.3335 20.5201 15.0676C20.5297 15.0676 23.0697 15.5209 22.99 14.4011C22.9556 13.9101 22.2234 13.7217 21.6926 13.6991C21.1036 13.6754 20.5125 13.8875 20.5125 13.8875C20.2024 13.7314 19.9882 13.4266 19.8568 13.0735C21.6732 11.6985 22.9588 10.3699 22.9588 8.86245C22.9588 8.0646 22.4269 7.35505 21.4073 7.35505C19.5908 7.35505 18.2159 9.65922 18.2159 11.7427C18.2159 12.0969 18.2159 12.4522 18.3052 12.7623C17.1532 13.6043 16.2961 14.1265 14.7445 15.0579C14.7445 14.863 14.7855 14.3645 14.9157 13.7141C15.4476 13.1381 16.1777 12.2756 16.1777 11.6102C16.1777 11.3001 16.0011 11.0342 15.6458 11.0342C14.7596 11.0342 14.0953 12.3629 13.9176 13.2942C13.5182 13.782 12.7214 14.4032 12.056 14.4032C11.5241 14.4032 11.3475 13.9144 11.3023 13.7378C12.9873 13.1607 15.0697 10.8565 15.0697 8.77308C15.0697 8.32947 14.8921 7.35397 13.5634 7.35397C11.5682 7.35397 9.88425 10.3236 9.88425 12.6288C9.1747 12.6288 8.90982 11.8751 8.90982 11.2991C8.90982 10.723 9.13163 10.1459 9.13163 9.96931C9.13163 9.79273 9.04226 9.56985 8.77631 9.56985C8.1109 9.56985 7.71252 10.456 7.71252 11.4756C7.75774 12.8937 8.68802 13.7809 9.92947 13.8692C10.1071 14.7112 10.8608 15.509 11.7911 15.509C12.3682 15.509 13.0767 15.3324 13.5645 14.8888C13.5192 15.2 13.4762 15.4649 13.431 15.7308C11.481 16.7505 10.063 17.46 8.77739 18.611C7.75882 19.5424 7.18169 20.7828 7.18169 21.7594C7.18169 23.0891 8.02369 24.3284 9.75181 24.3284C11.7911 24.3284 13.3416 22.6896 14.0953 20.4285C14.4506 19.3647 14.5927 17.8175 14.681 16.3984C16.7203 15.2463 17.6872 14.5787 18.7489 13.825C18.8824 14.0468 19.017 14.2245 19.1925 14.3569C18.2622 14.8447 16.0463 16.2186 16.0463 19.453C16.0463 21.7583 17.5978 24.3284 20.6557 24.3284C23.1817 24.3284 24.9109 22.2471 24.9109 20.252C24.9109 18.4345 23.8912 16.7505 21.9402 16.7505L21.9392 16.7537ZM29.5591 20.5599C29.5515 20.5739 29.5257 20.5943 29.4772 20.5771C29.4396 20.5631 29.4277 20.5437 29.4288 20.5201C29.431 20.4942 29.965 18.9179 29.9618 17.1079C29.9553 15.1569 29.1628 13.9607 28.1454 13.9607C27.5241 13.9607 27.0816 14.4043 27.0816 15.0686C27.0816 16.2659 28.5437 16.3542 28.5437 18.9696C28.5437 20.0334 28.3219 21.0509 27.9677 22.161C26.3279 27.7007 21.0972 30.2708 16.0011 30.2708C13.6517 30.2708 11.9817 29.7884 11.4843 29.5655C11.4638 29.5559 11.4476 29.516 11.4627 29.4773C11.4746 29.446 11.509 29.4234 11.5273 29.432C11.7297 29.5117 13.1629 29.9618 14.9351 29.9618C16.8851 29.9618 18.0382 29.165 18.0382 28.1873C18.0382 27.5682 17.5505 27.0805 16.9292 27.0805C15.733 27.0805 15.6436 28.5868 13.0735 28.5868C11.9655 28.5868 10.9911 28.3661 9.83795 28.0108C4.34239 26.3268 1.72274 21.1402 1.72705 15.9989C1.72921 13.4956 2.43015 11.5015 2.44199 11.4821C2.4506 11.4692 2.48183 11.4552 2.52059 11.4692C2.56043 11.4821 2.5712 11.5166 2.56689 11.5262C2.50229 11.7341 2.03715 13.1629 2.03715 14.9351C2.03715 16.8861 2.83499 18.0382 3.85357 18.0382C4.42961 18.0382 4.91736 17.5946 4.91736 16.9755C4.91736 15.7782 3.45518 15.6458 3.45518 13.0746C3.45518 11.9655 3.67699 10.9911 4.03122 9.83903C5.71521 4.34347 10.9007 1.76689 15.9989 1.72813C18.3677 1.70983 20.4415 2.4183 20.519 2.48075C20.533 2.4926 20.548 2.52382 20.533 2.56043C20.5168 2.60135 20.4888 2.60673 20.4748 2.60458C20.4501 2.60135 19.102 2.03822 17.0616 2.03822C15.1569 2.03822 13.9607 2.83499 13.9607 3.85572C13.9607 4.43176 14.4032 4.91844 15.0676 4.91844C16.2649 4.91844 16.3542 3.45626 18.9233 3.45626C20.0323 3.45626 21.0056 3.67806 22.1588 4.0323C27.7007 5.71628 30.2223 10.947 30.2697 15.9989C30.2945 18.5873 29.5645 20.547 29.558 20.5599H29.5591ZM16.0011 0.751548C7.58008 0.751548 0.752624 7.57793 0.752624 15.9978C0.752624 24.4178 7.579 31.2441 16.0011 31.2441C24.4231 31.2441 31.2463 24.4199 31.2463 15.9978C31.2463 7.57577 24.4221 0.751548 16.0011 0.751548ZM16.0011 31.9989C7.18062 31.9989 0 24.8635 0 15.9989C0 7.13432 7.17846 0 15.9989 0C24.8194 0 31.9989 7.17954 31.9989 16C31.9989 24.8205 24.8172 32 15.9989 32L16.0011 31.9989Z" fill="#640ACD"/>
</svg>
